X: 8973
T: Cutting Bracken
R: strathspey
M: 4/4
K: Edorian
|:^D/|~E2 e2 d<B d2|B>AF>E D>EF<D|(3EEE e2 d<B d2|B>AF<d E2 E3/2:|
|:_B/|B>AF>E D>EF<D|B>AF<E F2 d2|B>AF>E D>EF<A|B<Ad<F E2 E3/2:|

